dist/assets/img/flower-icon.svg

<?xml version="1.0" encoding="UTF-8"?> <svg xmlns="http://www.w3.org/2000/svg" width="188" height="300" viewBox="0 0 188 300" fill="none"> <g clip-path="url(#clip0_9_5)"> <path d="M181.137 174.913H149.313C157.704 166.723 162.439 155.498 162.454 143.773V131.318C162.454 129.667 161.799 128.082 160.631 126.914C159.462 125.747 157.879 125.09 156.227 125.09H131.316C119.591 125.104 108.368 129.842 100.178 138.231V100.18H118.861V93.9517C118.867 85.0435 121.265 76.3008 125.798 68.6332C130.333 60.9661 136.842 54.656 144.642 50.3567C136.842 46.0591 130.333 39.7473 125.798 32.0802C121.265 24.4131 118.867 15.672 118.861 6.76381V0.535338H69.0373V6.76381C69.0311 15.672 66.6331 24.4126 62.1 32.0802C57.5647 39.7473 51.0566 46.0595 43.256 50.3567C51.0566 54.6564 57.5647 60.9661 62.1 68.6332C66.6332 76.3003 69.0309 85.0435 69.0373 93.9517V100.18H87.7206V138.233V138.231C79.5299 129.842 68.3076 125.104 56.5825 125.09H31.6708C28.2323 125.09 25.4445 127.88 25.4445 131.318V143.773C25.4591 155.498 30.1945 166.723 38.5852 174.913H6.76118C3.32063 174.913 0.532715 177.701 0.532715 181.14C0.532715 184.58 3.32063 187.368 6.76118 187.368H13.6735L25.4445 293.927C25.7948 297.096 28.4826 299.488 31.6708 299.469H156.23C159.418 299.488 162.106 297.096 162.456 293.927L174.227 187.368H181.139C184.58 187.368 187.368 184.58 187.368 181.14C187.368 177.701 184.58 174.913 181.139 174.913L181.137 174.913ZM69.0374 50.3546C69.0374 43.7487 71.6627 37.4118 76.3335 32.741C81.0064 28.0681 87.3433 25.4449 93.9491 25.4449C100.555 25.4449 106.892 28.0681 111.565 32.741C116.236 37.4118 118.861 43.7487 118.861 50.3546C118.861 56.9626 116.236 63.2973 111.565 67.9702C106.892 72.641 100.555 75.2663 93.9491 75.2663C87.3433 75.2663 81.0064 72.641 76.3335 67.9702C71.6627 63.2973 69.0374 56.9626 69.0374 50.3546ZM12.9876 93.9496V56.583H19.216C29.1267 56.583 38.6312 60.5199 45.6374 67.5282C52.6458 74.5344 56.5826 84.0389 56.5826 93.9496V100.178H19.216C15.7776 100.178 12.9876 97.388 12.9876 93.9496ZM19.216 44.1282H12.9876V6.76167C12.9876 3.32112 15.7776 0.533203 19.216 0.533203H56.5826V6.76167C56.5826 16.6702 52.6458 26.1747 45.6374 33.183C38.6312 40.1914 29.1267 44.1282 19.216 44.1282V44.1282ZM93.9491 62.8115C90.6462 62.8115 87.4767 61.4978 85.1413 59.1624C82.8059 56.827 81.4943 53.6594 81.4943 50.3546C81.4943 47.0517 82.8059 43.8843 85.1413 41.5489C87.4767 39.2114 90.6459 37.8999 93.9491 37.8999C97.2523 37.8999 100.422 39.2114 102.757 41.5489C105.092 43.8843 106.404 47.0519 106.404 50.3546C106.404 53.6596 105.092 56.827 102.757 59.1624C100.422 61.4978 97.2523 62.8115 93.9491 62.8115ZM168.682 56.583H174.911V93.9496C174.911 95.6011 174.254 97.1858 173.086 98.3535C171.918 99.5212 170.334 100.178 168.682 100.178H131.316V93.9496C131.316 84.0389 135.253 74.5344 142.261 67.5282C149.267 60.5199 158.772 56.583 168.682 56.583V56.583ZM131.316 6.76167V0.533203H168.682C170.334 0.533203 171.918 1.19005 173.086 2.35776C174.254 3.52546 174.911 5.11018 174.911 6.76167V44.1282H168.682C158.772 44.1282 149.267 40.1914 142.261 33.183C135.253 26.1747 131.316 16.6702 131.316 6.76167V6.76167Z" fill="#181D24"></path> </g> <defs> <clipPath id="clip0_9_5"> <rect width="187.9" height="300" fill="white"></rect> </clipPath> </defs> </svg>

<svg xmlns="http://www.w3.org/2000/svg" width="188" height="300" fill="none"><g clip-path="url(#clip0_9_5)"><path d="M181.137 174.913h-31.824a43.59 43.59 0 0013.141-31.14v-12.455a6.229 6.229 0 00-6.227-6.228h-24.911a43.59 43.59 0 00-31.138 13.141V100.18h18.683v-6.228a49.82 49.82 0 0125.781-43.595 49.81 49.81 0 01-25.781-43.593V.535H69.037v6.229a49.813 49.813 0 01-25.781 43.593 49.82 49.82 0 0125.781 43.595v6.228h18.684v38.053-.002a43.59 43.59 0 00-31.139-13.141h-24.91a6.228 6.228 0 00-6.226 6.228v12.455a43.59 43.59 0 0013.14 31.14H6.761a6.227 6.227 0 100 12.455h6.913l11.77 106.559a6.227 6.227 0 006.227 5.542H156.23a6.226 6.226 0 006.226-5.542l11.771-106.559h6.912a6.228 6.228 0 100-12.455h-.002zM69.037 50.355a24.912 24.912 0 1149.824.002 24.912 24.912 0 01-49.824-.002zM12.987 93.95V56.583h6.229a37.36 37.36 0 0126.421 10.945A37.359 37.359 0 0156.583 93.95v6.228H19.216a6.23 6.23 0 01-6.228-6.228zm6.229-49.822h-6.228V6.762A6.23 6.23 0 0119.216.533h37.367v6.229a37.366 37.366 0 01-37.367 37.366zm74.733 18.684a12.46 12.46 0 01-12.455-12.457A12.453 12.453 0 0193.95 37.9a12.455 12.455 0 110 24.912zm74.733-6.229h6.229V93.95a6.229 6.229 0 01-6.229 6.228h-37.366V93.95a37.36 37.36 0 0110.945-26.422 37.36 37.36 0 0126.421-10.945zM131.316 6.762V.533h37.366a6.23 6.23 0 016.229 6.229v37.366h-6.229a37.368 37.368 0 01-37.366-37.367z" fill="#181D24"/></g><defs><clipPath id="clip0_9_5"><path fill="#fff" d="M0 0h187.9v300H0z"/></clipPath></defs></svg>064 28.0681 87.3433 25.4449 93.9491 25.4449C100.555 25.4449 106.892 28.0681 111.565 32.741C116.236 37.4118 118.861 43.7487 118.861 50.3546C118.861 56.9626 116.236 63.2973 111.565 67.9702C106.892 72.641 100.555 75.2663 93.9491 75.2663C87.3433 75.2663 81.0064 72.641 76.3335 67.9702C71.6627 63.2973 69.0374 56.9626 69.0374 50.3546ZM12.9876 93.9496V56.583H19.216C29.1267 56.583 38.6312 60.5199 45.6374 67.5282C52.6458 74.5344 56.5826 84.0389 56.5826 93.9496V100.178H19.216C15.7776 100.178 12.9876 97.388 12.9876 93.9496ZM19.216 44.1282H12.9876V6.76167C12.9876 3.32112 15.7776 0.533203 19.216 0.533203H56.5826V6.76167C56.5826 16.6702 52.6458 26.1747 45.6374 33.183C38.6312 40.1914 29.1267 44.1282 19.216 44.1282V44.1282ZM93.9491 62.8115C90.6462 62.8115 87.4767 61.4978 85.1413 59.1624C82.8059 56.827 81.4943 53.6594 81.4943 50.3546C81.4943 47.0517 82.8059 43.8843 85.1413 41.5489C87.4767 39.2114 90.6459 37.8999 93.9491 37.8999C97.2523 37.8999 100.422 39.2114 102.757 41.5489C105.092 43.8843 106.404 47.0519 106.404 50.3546C106.404 53.6596 105.092 56.827 102.757 59.1624C100.422 61.4978 97.2523 62.8115 93.9491 62.8115ZM168.682 56.583H174.911V93.9496C174.911 95.6011 174.254 97.1858 173.086 98.3535C171.918 99.5212 170.334 100.178 168.682 100.178H131.316V93.9496C131.316 84.0389 135.253 74.5344 142.261 67.5282C149.267 60.5199 158.772 56.583 168.682 56.583V56.583ZM131.316 6.76167V0.533203H168.682C170.334 0.533203 171.918 1.19005 173.086 2.35776C174.254 3.52546 174.911 5.11018 174.911 6.76167V44.1282H168.682C158.772 44.1282 149.267 40.1914 142.261 33.183C135.253 26.1747 131.316 16.6702 131.316 6.76167V6.76167Z" fill="#181D24"></path> </g> <defs> <clipPath id="clip0_9_5"> <rect width="187.9" height="300" fill="white"></rect> </clipPath> </defs> </svg>
